X:584
T:Put Me In the Big Chest
S:Sessions etc
Z:Nigel Gatherer
L:1/8
M:4/4
K:A
F | EFAB c2 cf | ecBA F/F/F AF | EFAB cBcf | ecBc A/A/A A :|
c | efec eAAc  | efec BABc     | efec efaf | ecBc A/A/A A :|]
<end>
<start>
